X: 9
T: Merrily Kissed The Quaker
R: slide
M: 12/8
L: 1/8
K: Gmaj
M: 6/8
|: (d>ef) A2 f | g2 f {f/}e2 d | (d>ef) A2 A | (B3 d2) A |
d>ef A2 f | g2 f {f/}e2 d | d>ef A2 A | B3 d2 z :|
(d2 f) (a2 f) | b2 g a3 | d2 f {f/}a2 g | f3 a2 z |
b2 g efg | a2 f d2 d | d>ef A2 A | B3 d2 z :|


Tune 70	Setting 12539

